src/actions/16/debug-step-into.svg

<svg xmlns="http://www.w3.org/2000/svg" viewBox="0 0 16 16">
  <defs id="defs3051">
    <style type="text/css" id="current-color-scheme">
      .ColorScheme-Text {
        color:#363636;
      }
      .ColorScheme-NeutralText {
        color:#f67400;
      }
      </style>
  </defs>
 <path style="fill:currentColor;fill-opacity:1;stroke:none" 
     d="M 2 2 L 2 14 L 14 14 L 14 2 L 11 2 L 11 5 L 13 5 L 13 13 L 3 13 L 3 5 L 5 5 L 5 2 L 3 2 L 2 2 z M 7 6 C 5.934 6 5.4863281 6.3519062 5.4863281 7.2539062 C 5.4863281 7.2539062 5.4620781 7.841 5.4550781 8 C 5.4090781 8.369 5.2799531 8.6777344 4.8769531 8.6777344 L 4.5722656 8.6777344 L 4.5722656 9.3222656 L 4.8769531 9.3222656 C 5.4659531 9.3222656 5.4863281 9.9664375 5.4863281 10.523438 C 5.4813281 10.697437 5.4999062 10.892953 5.5039062 11.001953 C 5.5869063 11.713953 6.042 12.001953 7 12.001953 L 7 11.408203 C 6.55 11.408203 6.3940781 11.291953 6.3300781 11.001953 C 6.2960781 10.885953 6.2932969 10.487875 6.2792969 10.296875 C 6.2792969 9.881875 6.1556406 9.2618594 5.5566406 9.0058594 C 6.0296406 8.8028594 6.2009063 8.3778594 6.2539062 8.0058594 C 6.2779063 7.9018594 6.2713437 7.7821719 6.2773438 7.7011719 C 6.2773438 6.8351719 6.2870469 6.5976563 6.9980469 6.5976562 L 7 6 z M 9 6 L 9.0019531 6.5976562 C 9.7129531 6.5976563 9.7226562 6.8351719 9.7226562 7.7011719 C 9.7286563 7.7821719 9.7220938 7.9018594 9.7460938 8.0058594 C 9.7990937 8.3778594 9.9703594 8.8028594 10.443359 9.0058594 C 9.8443594 9.2618594 9.7207031 9.881875 9.7207031 10.296875 C 9.7067031 10.487875 9.7039219 10.885953 9.6699219 11.001953 C 9.6059219 11.291953 9.45 11.408203 9 11.408203 L 9 12.001953 C 9.958 12.001953 10.413094 11.713953 10.496094 11.001953 C 10.500094 10.892953 10.518672 10.697437 10.513672 10.523438 C 10.513672 9.9664375 10.534047 9.3222656 11.123047 9.3222656 L 11.427734 9.3222656 L 11.427734 8.6777344 L 11.123047 8.6777344 C 10.720047 8.6777344 10.590922 8.369 10.544922 8 C 10.537922 7.841 10.513672 7.2539062 10.513672 7.2539062 C 10.513672 6.3519062 10.066 6 9 6 z "
     class="ColorScheme-Text"
     />
  <path
      style="fill:currentColor;fill-opacity:1;stroke:none" 
     class="ColorScheme-NeutralText"
   d="M 10,2 8,5 6,2 Z" />
</svg>

<?xml version="1.0" encoding="UTF-8"?>
<svg viewBox="0 0 16 16" xmlns="http://www.w3.org/2000/svg">
 <defs id="defs3051">
  <style id="current-color-scheme" type="text/css">.ColorScheme-Text {
        color:#363636;
      }
      .ColorScheme-NeutralText {
        color:#f67400;
      }</style>
 </defs>
 <path class="ColorScheme-Text" d="m2 2v12h12v-12h-3v3h2v8h-10v-8h2v-3h-2-1zm5 4c-1.066 0-1.5137 0.35191-1.5137 1.2539 0 0-0.02425 0.58709-0.03125 0.74609-0.046 0.369-0.17512 0.67773-0.57812 0.67773h-0.30469v0.64453h0.30469c0.589 0 0.60938 0.64417 0.60938 1.2012-5e-3 0.174 0.013578 0.36952 0.017578 0.47852 0.083 0.712 0.53809 1 1.4961 1v-0.59375c-0.45 0-0.60592-0.11625-0.66992-0.40625-0.034-0.116-0.036781-0.51408-0.050781-0.70508 0-0.415-0.12366-1.035-0.72266-1.291 0.473-0.203 0.64427-0.628 0.69727-1 0.024-0.104 0.017438-0.22369 0.023438-0.30469 0-0.866 0.0097031-1.1035 0.7207-1.1035l0.0019531-0.59766zm2 0 0.0019531 0.59766c0.711 1e-7 0.7207 0.23752 0.7207 1.1035 0.0060001 0.081-5.624e-4 0.20069 0.023438 0.30469 0.053 0.372 0.22427 0.797 0.69727 1-0.599 0.256-0.72266 0.87602-0.72266 1.291-0.014 0.191-0.016781 0.58908-0.050781 0.70508-0.064 0.29-0.21992 0.40625-0.66992 0.40625v0.59375c0.958 0 1.4131-0.288 1.4961-1 4e-3 -0.109 0.022578-0.30452 0.017578-0.47852 0-0.557 0.020375-1.2012 0.60938-1.2012h0.30469v-0.64453h-0.30469c-0.403 0-0.53212-0.30873-0.57812-0.67773-7e-3 -0.159-0.03125-0.74609-0.03125-0.74609 0-0.902-0.44767-1.2539-1.5137-1.2539z" fill="currentColor"/>
 <path class="ColorScheme-NeutralText" d="m10 2-2 3-2-3z" fill="currentColor"/>
</svg>
